webroot/images/icon_work.svg

<?xml version="1.0" encoding="UTF-8"?>
<svg width="50px" height="50px" viewBox="0 0 50 50" version="1.1" xmlns="http://www.w3.org/2000/svg" xmlns:xlink="http://www.w3.org/1999/xlink">
    <!-- Generator: Sketch 48.2 (47327) - http://www.bohemiancoding.com/sketch -->
    <title>icon_work</title>
    <desc>Created with Sketch.</desc>
    <defs></defs>
    <g id="Chia_landingpage_v2" stroke="none" stroke-width="1" fill="none" fill-rule="evenodd" transform="translate(-80.000000, -2232.000000)">
        <g id="icon_work" transform="translate(80.000000, 2232.000000)">
            <circle id="Oval-4" fill="#BAECBC" cx="25" cy="25" r="25"></circle>
            <path d="M20.1954023,17.137931 L20.1954023,13.8275862 C20.1954023,13.370523 20.5504868,13 20.9885057,13 L29.7047317,13 C30.1427506,13 30.4978352,13.370523 30.4978352,13.8275862 L30.4978352,17.137931 L37.9655172,17.137931 C38.517802,17.137931 38.9655172,17.5856463 38.9655172,18.137931 L38.9655172,36 C38.9655172,36.5522847 38.517802,37 37.9655172,37 L13,37 C12.4477153,37 12,36.5522847 12,36 L12,18.137931 C12,17.5856463 12.4477153,17.137931 13,17.137931 L20.1954023,17.137931 Z M21.7816092,17.137931 L28.9116283,17.137931 L28.9116283,14.6551724 L21.7816092,14.6551724 L21.7816092,17.137931 Z" id="Combined-Shape" fill="#33C186"></path>
            <path d="M27.6600604,32.0632036 L29.2157065,32.9911423 C29.5418904,33.1917777 29.9433474,33.1416189 30.2193492,32.8657452 L30.8215347,32.263839 C31.0724454,32.0130447 31.1477186,31.6117739 30.9720811,31.2857414 L30.0437117,29.6555788 C30.144076,29.4800228 30.2193492,29.2793874 30.2695313,29.078752 L32.1011791,28.6022429 C32.4775451,28.5019252 32.7284558,28.1758927 32.7284558,27.7997013 L32.7284558,26.9470008 C32.7284558,26.5708094 32.4775451,26.2447769 32.1262702,26.1444592 L30.2946224,25.6428707 C30.2193492,25.4422353 30.144076,25.2415999 30.0437117,25.0409645 L30.9971722,23.4358813 C31.1979007,23.1098487 31.1477186,22.7085779 30.8717169,22.4327043 L30.2695313,21.830798 C30.0186206,21.5800038 29.6171636,21.5047655 29.2909797,21.7054009 L27.6349694,22.6333397 C27.4593319,22.533022 27.2586034,22.4828631 27.0829659,22.4076248 L26.5811446,20.5768268 C26.4807803,20.2507943 26.1545965,20 25.7782305,20 L24.9251342,20 C24.5487682,20 24.2225844,20.2507943 24.1222201,20.6269856 L23.6454899,22.4076248 C23.4196703,22.4828631 23.2189417,22.5581014 23.0182132,22.6584191 L21.3622028,21.7304803 C21.036019,21.5549244 20.6345619,21.6050832 20.3836513,21.8558775 L19.7814657,22.4577837 C19.505464,22.7336574 19.4552818,23.1349282 19.6560104,23.4609607 L20.6094709,25.0660439 C20.5091066,25.2666793 20.4338334,25.4923941 20.3585602,25.6930296 L18.6021856,26.1695386 C18.2509107,26.2698563 18,26.5958889 18,26.9720802 L18,27.8247807 C18,28.2009721 18.2509107,28.5270046 18.6272767,28.6273223 L20.3585602,29.078752 C20.4338334,29.2793874 20.5091066,29.4800228 20.6094709,29.6806582 L19.7061925,31.2857414 C19.530555,31.6117739 19.5807372,32.0130447 19.8316478,32.263839 L20.4087423,32.8406658 C20.6847441,33.1165395 21.0862011,33.1666983 21.412385,32.9660629 L23.0182132,32.0381242 C23.2189417,32.1384419 23.4447613,32.2136801 23.6705809,32.2889184 L24.1473112,34.0695576 C24.2476754,34.4206696 24.5738593,34.6965432 24.9502253,34.6965432 L25.7782305,34.6965432 C26.1545965,34.6965432 26.4807803,34.445749 26.5811446,34.094637 L27.0829659,32.2889184 C27.2836944,32.2387596 27.484423,32.1635213 27.6600604,32.0632036 Z M23.319306,29.7558965 L22.9680311,29.4047845 C22.5916651,28.9784343 22.3407544,28.4517663 22.2403902,27.8498601 L22.2403902,26.8717625 C22.4662098,25.366997 23.7709452,24.2133435 25.3516823,24.2133435 C27.0829659,24.2133435 28.5131567,25.6177913 28.5131567,27.373351 C28.5131567,28.1508132 28.2120639,28.8530371 27.7353336,29.4047845 L27.3840587,29.7558965 C26.8320552,30.2324055 26.1295054,30.5333586 25.3516823,30.5333586 C24.5738593,30.5333586 23.8713095,30.2324055 23.319306,29.7558965 Z" id="Shape" fill="#7CDBA5" fill-rule="nonzero"></path>
        </g>
    </g>
</svg>

<svg width="50" height="50" xmlns="http://www.w3.org/2000/svg"><g fill="none" fill-rule="evenodd"><circle fill="#BAECBC" cx="25" cy="25" r="25"/><path d="M20.195 17.138v-3.31c0-.457.355-.828.794-.828h8.716c.438 0 .793.37.793.828v3.31h7.468a1 1 0 0 1 1 1V36a1 1 0 0 1-1 1H13a1 1 0 0 1-1-1V18.138a1 1 0 0 1 1-1h7.195zm1.587 0h7.13v-2.483h-7.13v2.483z" fill="#33C186"/><path d="M27.66 32.063l1.556.928c.326.2.727.15 1.003-.125l.603-.602a.835.835 0 0 0 .15-.978l-.928-1.63a2.3 2.3 0 0 0 .226-.577l1.831-.477a.829.829 0 0 0 .627-.802v-.853a.835.835 0 0 0-.602-.803l-1.831-.501c-.076-.2-.15-.401-.251-.602l.953-1.605a.8.8 0 0 0-.125-1.003l-.602-.602a.795.795 0 0 0-.979-.126l-1.656.928c-.176-.1-.376-.15-.552-.225l-.502-1.831a.845.845 0 0 0-.803-.577h-.853a.83.83 0 0 0-.803.627l-.477 1.78c-.225.076-.426.151-.627.251l-1.656-.928a.831.831 0 0 0-.978.126l-.603.602a.8.8 0 0 0-.125 1.003l.953 1.605c-.1.2-.175.426-.25.627l-1.757.477a.835.835 0 0 0-.602.802v.853c0 .376.25.702.627.802l1.732.452c.075.2.15.401.25.602l-.903 1.605a.83.83 0 0 0 .126.978l.577.577a.802.802 0 0 0 1.003.125l1.606-.928c.2.1.427.176.653.25l.476 1.782c.1.35.427.627.803.627h.828c.377 0 .703-.251.803-.602l.502-1.806c.2-.05.401-.125.577-.226zm-4.34-2.307l-.352-.351a3.088 3.088 0 0 1-.728-1.555v-.978a3.137 3.137 0 0 1 3.112-2.659 3.164 3.164 0 0 1 3.161 3.16c0 .778-.3 1.48-.778 2.032l-.35.35a3.1 3.1 0 0 1-2.033.778 3.1 3.1 0 0 1-2.033-.777z" fill="#7CDBA5" fill-rule="nonzero"/></g></svg>
